X: 1
T: Ballyogan
M: 4/4
L: 1/8
R: reel
K: Bmin
dBBA ~B2AB|dB ~B2 BAFA|dBBA ~B2 dB|1~A3B ADFA:|2~A3F GFDF||!
|:(DE)BA (EF)AF|(DE)BA dBAF|1(DE)BA (EF)AF|~d3e dBAF:|!
|2(DE)BA (EF) (3ABd|fdef dBAB||!
